src/assets/img/catalog-single/fuel.svg

<svg width="45" height="45" viewBox="0 0 45 45" fill="none" xmlns="http://www.w3.org/2000/svg">
<g clip-path="url(#clip0)">
<path d="M0.898556 4.47386L12.7842 8.00853C13.1531 8.11768 13.4959 8.30269 13.7906 8.55153L17.4046 11.5909L20.4463 8.29685L15.4516 4.19995C15.3258 4.09664 15.1806 4.01941 15.0252 3.97342L2.15999 0.149052C1.84854 0.0563771 1.51329 0.0924172 1.22802 0.249277C0.942757 0.406137 0.730932 0.670774 0.63913 0.985524L0.0709764 2.94027C-0.119428 3.59414 0.250841 4.28062 0.898556 4.47386Z" fill="black" fill-opacity="0.8"/>
<path d="M18.8783 12.8299C19.0194 12.9486 19.1156 13.113 19.1503 13.2949L24.6805 42.312C24.8668 43.2913 25.485 44.1312 26.3601 44.5939C27.235 45.0565 28.271 45.0912 29.1744 44.6886L37.4437 41.0001C37.6403 40.9126 37.864 40.9088 38.0632 40.9902C38.2625 41.0715 38.4209 41.2305 38.5022 41.4316C38.6086 41.6949 38.8146 41.9049 39.0744 42.0148C39.3345 42.1249 39.6269 42.126 39.8877 42.0182L43.9168 40.3494C44.4595 40.1252 44.7192 39.4992 44.4969 38.9517L36.9759 20.425C36.862 20.1446 36.9143 19.8233 37.1112 19.5944L37.9752 18.587C38.4165 18.0711 38.3611 17.292 37.8511 16.8451L29.4586 9.50456C29.2125 9.29038 28.8922 9.18364 28.5682 9.20801C28.2441 9.23238 27.9429 9.38546 27.7307 9.63397L25.8624 11.8159C25.5781 12.1489 25.0817 12.1897 24.7482 11.9076L21.6748 9.3223L18.626 12.6225L18.8783 12.8299ZM29.0646 42.1105C28.5501 42.3391 27.9595 42.313 27.4669 42.0398C26.9742 41.7666 26.6355 41.2775 26.5505 40.7166L24.6883 28.2965C24.5459 27.3547 24.7553 26.3929 25.2765 25.5987L27.3513 27.2538C28.1646 27.8943 28.7715 28.7644 29.0948 29.7536L32.6761 40.5004L29.0646 42.1105ZM27.7912 23.9182L28.985 23.7019C30.8489 23.3752 32.6714 24.4653 33.2824 26.2728L37.1024 37.7298C37.2343 38.1238 37.0463 38.5539 36.6695 38.7217L34.1426 39.8489L30.6062 29.2483C30.1852 27.9591 29.394 26.8258 28.3332 25.9917L26.4152 24.4578C26.8365 24.1893 27.3054 24.0061 27.796 23.9182H27.7912ZM23.4534 18.2863L24.5809 23.1068C24.6805 23.5379 24.4153 23.9693 23.9882 24.0706C23.9281 24.0853 23.8669 24.0926 23.805 24.0922C23.4361 24.0922 23.1154 23.8362 23.0308 23.4737L21.903 18.6536C21.8377 18.3739 21.9251 18.0804 22.1321 17.8834C22.3392 17.6867 22.6347 17.616 22.9074 17.6987C23.1797 17.7814 23.3878 18.0045 23.4534 18.2839V18.2863ZM21.225 13.4748C21.6507 13.3653 22.0839 13.6245 22.1927 14.0542L22.5908 15.6279C22.6993 16.058 22.4419 16.4953 22.0162 16.6048C21.9516 16.622 21.8853 16.6302 21.8187 16.6299C21.4555 16.6295 21.1383 16.381 21.0485 16.0258L20.6521 14.4544C20.599 14.2474 20.63 14.0281 20.7378 13.8441C20.8459 13.6605 21.0217 13.5277 21.2267 13.4748H21.225Z" fill="black" fill-opacity="0.8"/>
<path d="M3.98144 24.4968C5.04736 24.5339 6.08099 24.1227 6.83547 23.3611C7.58995 22.5998 7.99728 21.5563 7.96022 20.4799C7.96022 18.6209 5.38431 14.4828 3.98144 12.8477C2.57925 14.4818 0.00232347 18.6199 0.00232347 20.4799C-0.0347375 21.5563 0.372932 22.5998 1.12707 23.3611C1.88155 24.1227 2.91517 24.5339 3.98144 24.4968Z" fill="black" fill-opacity="0.8"/>
</g>
<defs>
<clipPath id="clip0">
<rect width="44.5765" height="45" fill="white"/>
</clipPath>
</defs>
</svg>

<svg width="45" height="45" fill="none" xmlns="http://www.w3.org/2000/svg"><g clip-path="url(#clip0)" fill="#000" fill-opacity=".8"><path d="M.899 4.474l11.885 3.535c.37.109.712.294 1.007.543l3.614 3.039 3.041-3.294L15.452 4.2a1.217 1.217 0 00-.427-.227L2.16.15a1.214 1.214 0 00-.932.1 1.233 1.233 0 00-.589.737L.071 2.94c-.19.654.18 1.34.828 1.534zm17.979 8.356a.805.805 0 01.272.465l5.53 29.017a3.27 3.27 0 001.68 2.282 3.219 3.219 0 002.814.095L37.444 41a.79.79 0 01.62-.01.8.8 0 01.438.442 1.054 1.054 0 001.386.586l4.029-1.669c.542-.224.802-.85.58-1.397l-7.521-18.527a.808.808 0 01.135-.83l.864-1.008a1.245 1.245 0 00-.124-1.742l-8.392-7.34a1.217 1.217 0 00-1.728.129l-1.869 2.182a.79.79 0 01-1.114.092l-3.073-2.586-3.049 3.3.252.208zm10.187 29.28a1.792 1.792 0 01-1.598-.07 1.824 1.824 0 01-.916-1.323l-1.863-12.42a3.866 3.866 0 01.588-2.698l2.075 1.655c.814.64 1.42 1.51 1.744 2.5L32.676 40.5l-3.611 1.61zM27.79 23.919l1.194-.216a3.842 3.842 0 014.297 2.57l3.82 11.458a.806.806 0 01-.432.992l-2.527 1.127-3.537-10.6a6.843 6.843 0 00-2.273-3.257l-1.918-1.534a3.82 3.82 0 011.381-.54h-.005zm-4.338-5.632l1.128 4.82a.803.803 0 01-.776.986.797.797 0 01-.774-.618l-1.128-4.82a.81.81 0 01.23-.77.792.792 0 01.774-.185c.273.082.48.305.546.585v.002zm-2.228-4.811c.426-.11.859.15.968.58l.398 1.573a.804.804 0 01-.772 1.002.797.797 0 01-.77-.604l-.397-1.572a.8.8 0 01.575-.98h-.002zM3.981 24.497a3.83 3.83 0 002.854-1.136A3.903 3.903 0 007.96 20.48c0-1.86-2.576-5.997-3.979-7.632C2.58 14.482.002 18.62.002 20.48a3.904 3.904 0 001.125 2.881 3.83 3.83 0 002.854 1.136z"/></g><defs><clipPath id="clip0"><path fill="#fff" d="M0 0h44.577v45H0z"/></clipPath></defs></svg>
